X: 1270
T: The Daisy Wheel
M:C|
L:1/8
R:Reel
B:O'Neill's 1270
N:Collected by McFadden
Z:Transcribed by Trish O'Neil
K:D
(AG)|FGAF DEFD|.E(A,{B,}A,G,)A,2(AG)|FGAF DEFA|(3fga ec dBAG|
FGAF DEFD|E>(A,{B,}(3A,G,A,) E>(A,{B,}(3A,G,A,)|FGAF DEFA|faecd2||
(ag)|fd{e}dc ~(dcd).f|edcd efge|fd{e}dc dfaf|ec (3ABcd2(ag)|
fd{e}dc dfaf|edcd efge|fdef gbag|(3fga (ec) dBAG||


